X: 16189
T: Green Pigeon, The
R: reel
M: 4/4
K: Dmajor
FDAF GFED|FDAF G3 A|FDAF GFEc|dBcA G3 A|
FDAF GFED|FDAF G3 A|FDAF GFEc|dBcA G3 A||
A3B cAGE|A3B cdec|A3B cAGE|dBcA G3B|
A3B cAGE|A3B cdeg|f3d e3c|dcAF G2 AG||

